X: 713
T: Kentucky Mandolin
C:Bill Monroe
B: jims roots
M:2/4
L:1/16
Q: 1/4=100
K:Gm
V:1 
%Tabledited by  Mike Stangeland
x8 | x8 | DGBd gfdc | (3 B2D2^F2 !///!G4 ||
|: "Gm"DGGB BAAc | cBcd cGGF | DGGG GGGA | BABd "D"d2[d2D] |
"Gm"D[GB][GB][GB] [GB][GB][GB]c | dcBd cGGF | DGGB Bddc |"D"BG^FG "Gm"G2GG ||
GGGG GGGA | BABc BGG=F | DGGB BABc | cBcc "D"d4d4 |
"Gm"D[GB][GB][GB] [GB][GB][GB]c | dcBd cGGF | DGGB Bddc | "D"BG^FG "Gm"G2G2 |]
|: [K:F]"Gm"eggg gggg | ggga gdde | "F"fefg fddf | agfa gddc |
   "Gm"ddde eggg | ggga gdde | "D"fgfd BGAB | AG[G,GB][G,GB] "Gm" [G,2G2B2] [GB]e ||
    eggg g2gg | g2ga gdde | "F"fefg fddf | agfa gddc |
   "Gm"ddde eggg | ggga gdde | "D"fgfd BGGB | BcBc "Gm"[G,2G2B2][G,2G2B2] |]
% abcbook-tune_id 6298c25df1ea18e7f14ef7c7


% abcbook-boost 0
% abcbook-tablature 
% abcbook-transpose 
% abcbook-lastupdated 1654178399470
% abcbook-soundfonts 
% abcbook-repeats 1


